src/images/single-assets/MIMO.svg

<svg width="100" height="96" viewBox="0 0 100 96" fill="none" xmlns="http://www.w3.org/2000/svg">
    <path fill-rule="evenodd" clip-rule="evenodd"
          d="M73.7473 3.99633C73.4129 4.04871 73.1664 4.33681 73.1664 4.67532V85.9023C73.1664 86.3242 73.5431 86.6466 73.96 86.5813L99.4187 82.5934C99.7532 82.541 99.9996 82.2529 99.9996 81.9144V0.687425C99.9996 0.265448 99.6229 -0.0568709 99.206 0.00843196L73.7473 3.99633ZM0.0610345 14.8159C0 14.9509 0 15.1179 0 15.4519V85.1006C0 85.5433 0 85.7646 0.0901123 85.9228C0.169201 86.0616 0.294185 86.1686 0.443574 86.2252C0.613778 86.2898 0.832442 86.2555 1.26976 86.187H1.26981L25.9038 82.3283C26.2338 82.2766 26.3987 82.2508 26.5226 82.1696C26.6319 82.098 26.7184 81.9968 26.7722 81.8779C26.8333 81.7429 26.8333 81.5759 26.8333 81.2419V11.5931C26.8333 11.1505 26.8333 10.9291 26.7432 10.7709C26.6641 10.6321 26.5391 10.5252 26.3897 10.4685C26.2195 10.404 26.0008 10.4382 25.5635 10.5068L0.929463 14.3655C0.599521 14.4171 0.43455 14.443 0.310628 14.5242C0.201406 14.5957 0.114829 14.6969 0.0610345 14.8159ZM36.485 27.6465C36.424 27.7815 36.424 27.9485 36.424 28.2825V94.5519C36.424 94.9946 36.424 95.2159 36.5141 95.3741C36.5932 95.5129 36.7182 95.6198 36.8675 95.6765C37.0377 95.741 37.2564 95.7068 37.6937 95.6383H37.6938L62.3278 91.7795C62.6577 91.7279 62.8227 91.702 62.9466 91.6208C63.0558 91.5493 63.1424 91.4481 63.1962 91.3291C63.2572 91.1941 63.2572 91.0271 63.2572 90.6932V24.4238C63.2572 23.9811 63.2572 23.7598 63.1671 23.6016C63.088 23.4628 62.9631 23.3558 62.8137 23.2992C62.6435 23.2346 62.4248 23.2689 61.9874 23.3374L37.3534 27.1961C37.0235 27.2478 36.8585 27.2736 36.7346 27.3548C36.6254 27.4264 36.5388 27.5276 36.485 27.6465Z"
          fill="url(#paint0_radial)"/>
    <defs>
        <radialGradient id="paint0_radial" cx="0" cy="0" r="1" gradientUnits="userSpaceOnUse"
                        gradientTransform="translate(89.7496 1.91477) rotate(139.007) scale(220.741 219.625)">
            <stop stop-color="#32C5FF"/>
            <stop offset="0.512584" stop-color="#B620E0"/>
            <stop offset="1" stop-color="#F7B500"/>
        </radialGradient>
    </defs>
</svg>

<svg xmlns="http://www.w3.org/2000/svg" width="100" height="96" fill="none"><path fill="url(#a)" fill-rule="evenodd" d="M73.747 3.996a.69.69 0 0 0-.58.68v81.226c0 .422.376.745.793.68l25.459-3.989a.69.69 0 0 0 .58-.679V.687a.687.687 0 0 0-.793-.679zM.061 14.816C0 14.95 0 15.118 0 15.452V85.1c0 .442 0 .664.09.822.08.139.204.246.354.302.17.065.388.03.826-.038l24.634-3.859c.33-.051.495-.077.619-.158a.7.7 0 0 0 .25-.292c.06-.135.06-.302.06-.636V11.593c0-.443 0-.664-.09-.822a.7.7 0 0 0-.353-.303c-.17-.064-.39-.03-.826.039L.928 14.366c-.33.051-.494.077-.618.158a.7.7 0 0 0-.25.292m36.424 12.83c-.061.136-.061.302-.061.636v66.27c0 .443 0 .664.09.822.08.139.204.246.353.303.17.064.39.03.827-.039l24.634-3.859c.33-.051.495-.077.619-.158a.7.7 0 0 0 .25-.292c.06-.135.06-.302.06-.636v-66.27c0-.442 0-.663-.09-.821a.7.7 0 0 0-.353-.303c-.17-.064-.39-.03-.827.038l-24.634 3.86c-.33.05-.495.077-.618.158a.7.7 0 0 0-.25.291" clip-rule="evenodd"/><defs><radialGradient id="a" cx="0" cy="0" r="1" gradientTransform="matrix(-166.61304 144.79877 -144.06671 -165.7707 89.75 1.915)" gradientUnits="userSpaceOnUse"><stop stop-color="#32C5FF"/><stop offset=".513" stop-color="#B620E0"/><stop offset="1" stop-color="#F7B500"/></radialGradient></defs></svg>
